X:50
T:Tripping up the Stairs
C:Traditional
M:6/8
R:jig
K:D
FAA GBB | FAd fed | cBc ABc | dfe dBA |
FAA GBB | FAd fed | cBc ABc |[1 dfe d2A :|[2 dfe d3 |]
|: dBB fBB | fgf fed | cAA eAA | efe edc |
dBB fBB | fgf fed | cBc ABc | dfe d3 :|

%%newpage
%%scale .7
%%staffsep 30

